X:455
T:Trunkles, Bampton
T:4/4
L:1/8
K:G
d2 B2 c2 ed | c2 A2 B2 G2 | d2 B2 c2 ed | c2 A2 G4 :|| 
B2 Bc d2 d2 | e2 g2 d2 g2 | f2 e2 d2 ^c2 | d4 || 
g4 | e2 c2 c2 e2 | d2 B2 B2 d2 | c2 A2 A2 dc | B2 G2 G2 AB | 
cB AG F2 A2 | G4 G4 | 

